X: 27112
T: Miss Margaret Ellis Of Duntrune
R: reel
M: 4/4
K: Amajor
E2|:A2 (3cBA GBAE|CEAE cAec|B2 FB dBfB|bagf edcB|
A2 (3cBA EAcA|^defg aecA|d2 af ecdB|c2 A2 A2:|
e2|:a2 ag aecA|a2 ag aecA|d2 fa c2 ea|dcBA BdcB|
A2 (3cBA GBAE|CEAE cAec|d2 af ecdB|c2 A2 A2:|

